icons/merge-details-32.svg

<svg id="icons" xmlns="http://www.w3.org/2000/svg" viewBox="0 0 32 32"><defs><style>.cls-1{fill:none;}</style></defs><path d="M16.49994,8,14,5h2V2h1V5h2ZM18.4527,8l-.80036.96045C17.64,8.97522,17.624,8.98578,17.61121,9H27v7H5V9H15.38879c-.01281-.01422-.0288-.02478-.04113-.03955L14.5473,8H4V25H14.5473l.80036-.96045c.01233-.01477.02832-.02533.04113-.03955H5V17H27v7H17.61121c.01281.01422.0288.02478.04113.03955L18.4527,25H28V8ZM14,28h2v3h1V28h2l-2.49994-3Z"/><rect class="cls-1" width="32" height="32"/></svg>

<svg xmlns="http://www.w3.org/2000/svg" viewBox="0 0 32 32"><path d="M16.5 8L14 5h2V2h1v3h2zm1.953 0l-.8.96c-.013.015-.029.026-.042.04H27v7H5V9h10.389c-.013-.014-.029-.025-.041-.04l-.8-.96H4v17h10.547l.8-.96c.013-.015.029-.026.042-.04H5v-7h22v7h-9.389c.013.014.029.025.041.04l.8.96H28V8zM14 28h2v3h1v-3h2l-2.5-3z"/><path fill="none" d="M0 0h32v32H0z"/></svg>
